icons/forest_persons_fill.svg

<svg width="48" height="48" viewBox="0 0 48 48" fill="none" xmlns="http://www.w3.org/2000/svg">
<path d="M21.4107 13.0021C21.5017 12.5882 21.5498 12.1571 21.5498 11.7143C21.5498 8.55837 19.1077 6 16.0952 6C13.0827 6 10.6407 8.55837 10.6407 11.7143C10.6407 12.1571 10.6887 12.5882 10.7797 13.0021C9.10046 13.7018 7.91338 15.4199 7.91338 17.4285C7.91338 17.9155 7.98316 18.3854 8.11281 18.8279C6.91221 19.469 6.09521 20.7343 6.09521 22.1905C6.09521 24.2944 7.8008 26 9.90474 26H15V39H7.5C6.67157 39 6 39.6716 6 40.5C6 41.3284 6.67157 42 7.5 42H40.5C41.3284 42 42 41.3284 42 40.5C42 39.6716 41.3284 39 40.5 39H39.0232C39.1425 38.9973 39.2633 38.973 39.3803 38.9249C39.8911 38.7148 40.1349 38.1305 39.9249 37.6197L38.3095 33.6911C38.2554 33.5595 38.1738 33.441 38.0702 33.3435L35.2748 30.7106L36.2133 27.1024C36.5026 27.6312 36.8045 28.1122 37.1623 28.5179C37.6021 29.0165 38.1168 29.3915 38.7737 29.6376C39.4093 29.8757 40.1337 29.9764 40.9723 29.9996C41.5244 30.0149 41.9843 29.5797 41.9996 29.0277C42.0149 28.4756 41.5797 28.0157 41.0277 28.0004C40.3017 27.9803 39.8224 27.8947 39.4754 27.7647C39.1496 27.6427 38.9026 27.4675 38.6622 27.1949C38.4039 26.9021 38.1492 26.493 37.8293 25.8835C37.6425 25.5276 37.4534 25.1438 37.2369 24.7041C37.0746 24.3744 36.8968 24.0133 36.6928 23.6091C36.3384 22.9066 35.591 22.4728 34.9905 22.2506C34.3847 22.0266 33.5609 21.8819 32.8643 22.1299C29.8585 23.2012 28.1581 25.4825 27.0549 28.6732C26.8744 29.1952 27.1513 29.7646 27.6732 29.9451C28.1952 30.1256 28.7646 29.8487 28.9451 29.3268C29.5541 27.5655 30.3102 26.254 31.3303 25.321L31.0041 28.9095C30.9763 29.2155 31.0907 29.5173 31.3144 29.728L36.5418 34.6514L38.0751 38.3803C38.2309 38.7592 38.5927 38.9912 38.9775 39H28.0104C28.22 38.998 28.4307 38.9303 28.6096 38.7926L31.6096 36.4849C31.7753 36.3575 31.8969 36.1813 31.9573 35.9812L32.819 33.1259L31.1657 31.5606L30.9649 32.3471L30.1354 35.0957L27.3902 37.2074C26.9525 37.5441 26.8706 38.172 27.2073 38.6097C27.4021 38.863 27.6944 38.9971 27.9909 39H17V26H22.2857C24.3896 26 26.0952 24.2944 26.0952 22.1905C26.0952 20.7343 25.2782 19.469 24.0776 18.8279C24.2072 18.3854 24.277 17.9155 24.277 17.4285C24.277 15.4199 23.09 13.7018 21.4107 13.0021Z" fill="black"/>
<path d="M38 18.5C38 19.8807 36.8807 21 35.5 21C34.1193 21 33 19.8807 33 18.5C33 17.1193 34.1193 16 35.5 16C36.8807 16 38 17.1193 38 18.5Z" fill="black"/>
</svg>

<svg
  xmlns="http://www.w3.org/2000/svg"
  width="24"
  height="24"
  viewBox="0 0 24 24"
  fill="none"
  stroke="currentColor"
  stroke-width="2"
  stroke-linecap="round"
  stroke-linejoin="round"
>
  <path d="M21.41 13.002q.139-.622.14-1.288C21.55 8.558 19.108 6 16.095 6s-5.454 2.558-5.454 5.714q.001.666.139 1.288c-1.68.7-2.867 2.418-2.867 4.426 0 .488.07.957.2 1.4A3.81 3.81 0 0 0 9.905 26H15v13H7.5a1.5 1.5 0 0 0 0 3h33a1.5 1.5 0 0 0 0-3h-1.477a1 1 0 0 0 .902-1.38l-1.616-3.929a1 1 0 0 0-.239-.348l-2.795-2.632.938-3.609c.29.53.591 1.01.95 1.416.44.498.954.874 1.61 1.12.636.238 1.36.338 2.2.362a1 1 0 0 0 .055-2c-.726-.02-1.206-.105-1.553-.235a1.94 1.94 0 0 1-.813-.57c-.258-.293-.513-.702-.833-1.311-.187-.356-.376-.74-.592-1.18-.162-.33-.34-.69-.544-1.095-.355-.702-1.102-1.136-1.703-1.358-.605-.224-1.43-.37-2.126-.121-3.005 1.071-4.706 3.353-5.81 6.543a1 1 0 0 0 1.891.654c.61-1.762 1.365-3.073 2.385-4.006l-.326 3.589a1 1 0 0 0 .31.818l5.228 4.923 1.533 3.73a1 1 0 0 0 .902.619H28.01c.21-.002.42-.07.6-.207l3-2.308a1 1 0 0 0 .347-.504l.862-2.855-1.653-1.565-.201.786-.83 2.749-2.745 2.111a1 1 0 0 0 .6 1.793H17V26h5.286a3.81 3.81 0 0 0 1.792-7.172c.13-.443.199-.912.199-1.4 0-2.008-1.187-3.726-2.866-4.426" />
  <path d="M38 18.5a2.5 2.5 0 1 1-5 0 2.5 2.5 0 0 1 5 0" />
</svg>
